flaticon/productivity-and-development/zoom-out.svg

<svg xmlns="http://www.w3.org/2000/svg" width="32" height="32" viewBox="0 0 24 24">
    <path d="M 7.1875 9.53125 L 12.496094 9.53125 L 12.496094 10.464844 L 7.1875 10.464844 Z M 7.1875 9.53125"/>
    <path d="M 23.992188 20.507812 C 23.929688 19.636719 23.496094 18.835938 22.796875 18.3125 L 18.179688 14.839844 C 19 13.414062 19.464844 11.761719 19.464844 10 C 19.464844 4.621094 15.109375 0.265625 9.734375 0.265625 C 4.359375 0.265625 0 4.621094 0 10 C 0 15.375 4.359375 19.730469 9.734375 19.730469 C 11.761719 19.730469 13.644531 19.109375 15.203125 18.046875 L 18.578125 22.53125 C 19.152344 23.296875 20.03125 23.734375 20.988281 23.734375 C 21.792969 23.734375 22.546875 23.421875 23.117188 22.851562 C 23.734375 22.234375 24.054688 21.378906 23.992188 20.507812 Z M 1 10 C 1 5.175781 4.910156 1.265625 9.734375 1.265625 C 14.558594 1.265625 18.46875 5.175781 18.46875 10 C 18.46875 14.824219 14.558594 18.734375 9.734375 18.734375 C 4.910156 18.734375 1 14.824219 1 10 Z M 22.410156 22.144531 C 22.03125 22.527344 21.523438 22.734375 20.988281 22.734375 C 20.347656 22.734375 19.757812 22.441406 19.375 21.933594 L 16.015625 17.433594 C 16.632812 16.910156 17.179688 16.316406 17.652344 15.660156 L 22.195312 19.109375 C 22.664062 19.460938 22.957031 19.996094 22.996094 20.578125 C 23.039062 21.160156 22.824219 21.730469 22.410156 22.144531 Z M 22.410156 22.144531"/>
    <path d="M 9.734375 3.25 C 6.003906 3.25 2.984375 6.269531 2.984375 10 C 2.984375 13.726562 6.003906 16.75 9.734375 16.75 C 13.460938 16.75 16.484375 13.726562 16.484375 10 C 16.484375 6.269531 13.460938 3.25 9.734375 3.25 Z M 9.734375 15.75 C 6.558594 15.75 3.980469 13.175781 3.980469 10 C 3.980469 6.820312 6.558594 4.246094 9.734375 4.246094 C 12.910156 4.246094 15.484375 6.820312 15.484375 10 C 15.484375 13.175781 12.910156 15.75 9.734375 15.75 Z M 9.734375 15.75"/>
</svg>

<svg xmlns="http://www.w3.org/2000/svg" width="32" height="32" viewBox="0 0 24 24">
    <path d="M7.188 9.531h5.308v.934H7.187zm0 0"/>
    <path d="M23.992 20.508a3.007 3.007 0 0 0-1.195-2.195L18.18 14.84A9.67 9.67 0 0 0 19.465 10c0-5.379-4.356-9.734-9.73-9.734C4.358.266 0 4.62 0 10c0 5.375 4.36 9.73 9.734 9.73 2.028 0 3.91-.62 5.47-1.683l3.374 4.484a2.986 2.986 0 0 0 2.41 1.203 3.011 3.011 0 0 0 3.004-3.227zM1 10a8.734 8.734 0 0 1 8.734-8.734A8.734 8.734 0 0 1 18.47 10a8.734 8.734 0 0 1-8.735 8.734A8.734 8.734 0 0 1 1 10zm21.41 12.145c-.379.382-.887.59-1.422.59-.64 0-1.23-.294-1.613-.801l-3.36-4.5a9.927 9.927 0 0 0 1.637-1.774l4.543 3.45c.47.35.762.886.801 1.468a2.006 2.006 0 0 1-.586 1.567zm0 0"/>
    <path d="M9.734 3.25c-3.73 0-6.75 3.02-6.75 6.75a6.75 6.75 0 0 0 6.75 6.75 6.752 6.752 0 0 0 6.75-6.75 6.75 6.75 0 0 0-6.75-6.75zm0 12.5a5.753 5.753 0 1 1-.001-11.506 5.753 5.753 0 0 1 .001 11.506zm0 0"/>
</svg>
